!!!SOCIAL_FUNCTION:	war songs
!!!PDT:	1929
!!!OTL: No_144_I_Am_Going_to_Another_Part_of_Elder_Brother's_Land.krn
!!!REG: Southwest
!!!LANG: Non-Tone
!!!LING_GROUP: Uto-Aztecan
**kern
*staff1
=1-
=
*clefF4
*k[f#c#g#d#a#]
*M2/4
4G#\
4G#\
=2
8F#\L
8E\J
8D#\L
8D#\J
=3||
*M3/4
2.D#\
=4||
*M2/4
4C#/
8.C#/L
16C#/Jk
=5
8.D#\L
16D#\Jk
4C#/
=6||
*M3/4
2.C#/
=7||
*M2/4
4C#/
8.D#\L
16D#\Jk
=8
8.D#\L
16D#\Jk
4D#\
=9||
*M3/4
2D#\
4C#/
=10||
*M2/4
4D#\
8.C#/L
16C#/Jk
=11
4D#\
8.C#/L
16C#/Jk
=12
4D#\
4D#\
=13||
*M3/4
2D#\
4D#\
=14
16F#\LK
8.F#\J
8F#\L
8F#\J
8E\L
8E\J
==:|!
*-
